-----BEGIN PGP PUBLIC KEY BLOCK-----

mQINBGpL9NkBEAC5RXtNa9ctdnVdo6sb/W+dcMHZfTOoKsqIv7AmnHs2TQIQgfRT
eQCFVJJ44rMm5vJ7i1iQH2RoZeoBczNDNU/t1GVP/CJ8EMHSYgZ4lGAl0aCS7XTK
kVAwiK82GO/7rRnq0oxvWRiD36i+upiB1lHsOvFG9WTv07jhCQLOeco7N7vMxHlK
+ZD+gq+sHaUfhCvtKDGHzjrXUsEP4pBuHEJJshW+MOu+TJZ00ZTTFfXcmJtxWq+i
ybw0eheYpTT80+M+4AS+PgmzvwOiUDa8UHN6/geYgNhgohUF8yq+47iQHkZzaT5k
J2iXsesTh5fT/ZDfcp7KyG3WMUKW8D+ViRexjBIVtK1/DJ5RcxMOwYVzmE6O+ovB
prRDbF0xb7Flnn6KTyiDL6aVH06SDbyrYj7gBAVp03UYbUVXDOVdiMwDeZYOZ9gB
P47XN7xiBHmrCmuPlGcms4PHbgXgqueFj6UrTT3wuP9SvnUJ2bXjGMWILEFtgNig
A92vNJfDrJHAhM8OZnFF0TyLsdcZtNzvZPScfXfeF0gMSprhKoC+E/g8+g99c6Gx
pgeBprXm15O1Y3X5XpRVklEZZkxnlJ7dYZ1fDdajnwLToXKinhOzYE/BnQ73+kYg
dwsURAd24tnNbgNjZ1Lr2h6lfxeEpNro8D2g17NMnd7c38RcqzkS8d1YsQARAQAB
tCZDU0lSVCBDZW50cmFsIEFzaWEgPGluZm9AY3NpcnQtY2Eub3JnPokCcwQTAQgA
XRYhBLiDboEcf2itP6KMLYrWaBcxmYj0BQJqS/TZGxSAAAAAAAQADm1hbnUyLDIu
NSsxLjEyLDIsMQIbgQUJBaRJlwULCQgHAgIiAgYVCgkICwIEFgIDAQIeBwIXgAAK
CRCK1mgXMZmI9HK4D/91WNlO93xaNwsYx8OJ9ja5bxy+wHCghvKCc2fkNy6jimF/
phT6SruyYzJ5BLSLLfoifi3aBqP07fZzwSOQQR+QHurl/9JKhyE/0rQ/FH4v59im
MZuPvIT53uQ9ZmSaWNpe0spIbWZo5DSDTaCsnbIlx/aAffEnTNHkQRR6ydDvu32C
I8zCrUiS4KCJxLLTcyeo3KWZi53JMbbY/aEZmiL6zCv57+CIi9L23Q4QaaRo249Q
l2Lc0GJT27lT0P9P2PU7RBhCHhsBga3wVLM5fIgzDi2K2kUfeEkQbdClbl6lovxN
xUKQBqi/BvLf42XVKSPksiy16ZP07tNug0lcCKEE9zsw7Yc5GtFmGsDwGY2hx9i6
rH7iQyVOjanhpSkXmK6tirQGFlVOyzkuA8tek05ybXw0NCQoscKrEJIJPg1O0ZDh
KzgyKjW6OH++iyxuq5NLnsRU4oVu0ItrgAT3Q8hyWA6e/nv/lOuspbrhsITjxfU9
sm6KQjklBUs/QkaqMJLrKf5rdt9h+Y4VSytYG7R2Ud7+4SiqmUpks9HtQjX+8a7p
AOSQvr12c9msQDE+b/5zO+2ENJyV9YCiSHjqKpnjGyicOH22Gpfl7ialuYz4jOnP
/zcjC9ER6P/uVnIbntAprHSwUfhkL6nCVmDPBYU7pJ6yatG0E2r/zw0OeRYoN7kC
DQRqS/TZARAApcFXUqJS/rT+ptquD6SWeWV+51GCskmX9KSXm9J78fn7bE4xtMlA
U2U5xATRvhGZJ+JhlxC33lrJtky8lZbVsPW0jCrwVZen6pu4V5MrGyzd5EGRVDOF
NbLZCcrnxexn9WdqIyUb0aFrByCRpC6RBdmaD/j2QsP8yMYutStET6TD7teyeoz+
Iw2aOZLA3pOV1YxKQ8wYhZVI5/+JSfav47kENaf0wavhDoofOTd0UMzrj7nwykez
RYBGQgeaRxDzccP7uufsCejS1xYULYT7t9OKCLcrPjC3UCtuOmdWDJY4xGo+KO9L
2DrvDlUEnQ5JwlxyoAvqeTnjd5LrcB/MaHbnvcRBXfYJJ+MbS4U7nNl/KNCT2jKC
CVa/3rth9fMHZBiurjLCEKd+TNZw9asAgihsDebCk6+n8wLjgA7cOoyaBas4Cydz
3zS5iqW3Gt17XSc6lMEl792T5gVa9mUk3we5BxZnxwq3kOtKMD71S1aGBLszoCsh
GxIUbI9r8glavTn41uvFyJU6illxTENvHbhqRsFhxQRm5AXcGz5yoozzIzETK9+s
9Xb6U1yzL5VDshbL95UdbG8+fAoagRAlW2/1AWT1jhdDtg1pdEMdwcQzuyyFKX02
XbmPpF/NyKRlFB3IXyItGnjYtAotOnnVN2pip+ySLUpVgAYIotnMHesAEQEAAYkC
WAQYAQgAQhYhBLiDboEcf2itP6KMLYrWaBcxmYj0BQJqS/TZGxSAAAAAAAQADm1h
bnUyLDIuNSsxLjEyLDIsMQIbDAUJBaRJlwAKCRCK1mgXMZmI9OeWD/4vphAXt7vU
KAHzlfI9pO1q5pV6JOAKQvixxlhk3FLbV972gYXmNcCg5VOooPqtpxb1JXYJaMxE
6slQalZm8LGzHAgnBSeosWMi969cLmniAUs4s4sGEm6yTAsYdKYwUHb2A1C3xI7Q
0pmLx3KMXmdfcp8s+QEUxEAChVpnYKX0gVsjDK2EMUFKjOdhRwm9hmKZncxmRzbo
+B6aNL70U9d/zAecLmaHITv+flSGOe7e7GBXCbyKnZy+6pFaNJL/3IIWQTbmvLtW
BV/PnHTDq01HVa0OGEu2rNd22fPvCzHZ2EbHwTe0eoHHgmiV2dl3isx0EVimHiRB
uMzS+G0IwLnSHIrd+zhkJ9tgVsxnbYlSvXnGcVG8sw3oxLSokk/NXX5WhITc/QiK
OsPOZHHTqUUzlyiRisq9ySAgES9kerDn8aqVkom52TOr0Lf3hN6fSAssoo2d55bH
gy7DmZMuQd/Z69rO/SIHi6Q9j3JF2F+19d2SWHDVnDEZ3vtKxTKomHEbDWQdh2gd
h7UpJA0EUlq1YmBG+RVGylUpIfSTTXOmGeFTCVN2gTALfga4T8atbCM+EqrBR2eR
6ZizYHJefd+rgxt5IheljsTzSiB5/NzdiaSys8vyrgm36BO+mBUh4Be/KRmm93/P
IgrgD4fz2MPc4RS5dfuogpAJfsomFP4flbkCDQRqS/T4ARAAwQYveuV2FHQsxswW
bEgMfV7KTSg5Hk7TCobCiW+fXThUNmKnN4pgqGu0OAcaqmvVxrAaus38FhnmL+tN
/jfKoydA9v1LJg2yCIA6S3NdR6qpAU2R+6jWoFXYnMCa6cqaCashTYLLYE8keMnC
atA3qFR09LTS8wQ55KdV92C6VZFJROm5Io0OXh4BrjkR9/FffEPSNU8dQgoCzaeW
hWeOyhL4YsCdfXrfaZQKVo4pBMTGjIJ0OQ5Vbb+Q0lvZJibyZWETVPGECNpDmZWv
xR7sdMTIrPc0r6GKlw9XZamEGx2HwXlE3/kmmGjuPAOE9B72z2i5QERN2Rc7XBL3
QkSZ1stn3Op0baTuBcFEX44wCYVFbneUzkf0pzMKGL98pOVtC9PNM5To1KhnWvjJ
kfdB4M5mccOjQcn6JfYL8sSy/OdD93036v/qNGy22Q8Gx5wBWkauQ2TlrqSqCz0h
br+PR19l4hHKHpavbrX1VlkiKYVeZ6DgwFVrpIJrrImB2Al56IaLOQ44KDDQAmqr
GS+jogPhX74CQ7wv/3AOxZpD8h3OxpA7+sZbbjTNErRC5jYaNirAHHV9NTgc0wiC
AMCH210pqFuTEiOqjlOFWFsvaOi0PP1f8IiK0UV6gUtvhQZRUFR226dyQWzu0Ch/
4vge8S50L11U3HwWPXFunNcCpysAEQEAAYkEiAQYAQgAPBYhBLiDboEcf2itP6KM
LYrWaBcxmYj0BQJqS/T4GxSAAAAAAAQADm1hbnUyLDIuNSsxLjEyLDIsMQIbAgJA
CRCK1mgXMZmI9MF0IAQZAQgAHRYhBPZBy19lle5f8sOiQEi8K2PnQLXLBQJqS/T4
AAoJEEi8K2PnQLXLAlUP/3QPUVcC6mfp6nOhyEoQvJxMvsc0UDcJWoJQ4Dss841h
ZtUzv4Ihh5/RFQOXRkcIq+PNWbaV4RbDx2lyYxJu263nQCrpVZbXpMCLACjs4zqp
vQMsbPx8Ork5Df4Hd1BRYmBZi8QAjHWIdOEjyfVyqMH0ZCHPfruS0O4Fe4DV7qLY
wpu9dOu746bQmYbs6WMfAOaYfxmhcuWhtWvi0E6BDUdmvseVpMGAG4ioAZ4Vd4h1
cZqiVAIq7Vch4TAVpCsDcjQdBr3hzKZ39rJ8RXxNHBKsbOJFCwpC3D9sNg+B2ERE
JyJ/SIMFc6XIVHYlfcj7MFoME37e9+471EvTN8fHaZfZl9c3b+mpCWp/VyVhhD88
0b4r6Vh7BB70mBUG6v5AJ9JiTx1YcuOMz7M5E8hA9UqERRSUkpZqgN6O7eNIWwuZ
oclukrBJxgj+3P0kf611GPR4nHWvozNcsYiri3Kc4xRkkSryGiyH8jHqebLHhxj8
dzLCi5uU/Qq4oOtsXz1nKUWZgIPLeok7FUTZiwPQMPZjEkqa0bgrkCs513f6qMiB
iXgyKr0T8YxwrguRZlJIAHa6d14Ae6T0ut+Kxs7AnMJiFAsb49p0soUhPLOvjZYb
4yQMLh63pyIOWILHJ165f4P7axWCauWQzV8vvDvv1FYvMg7VYQmF7wspox6yuAX9
nK4P/jUTRMdXGxsEGHsMOyZInvOOahLE3qfOzZIKm8WtY6oW0RP7LiI1SNx77yTW
nLRG7kiT0Q2sWGs5AsoTyFZ9wCQWKIgmeTIWd/InKkbWmJYC4RepVb4UpSZ+KtWd
gMZUk5FoRlOA5scWob8S9pgtATxqLLXxAQSA1f2RB1FBZZYlL9QCSB4a5eUQFPBh
OB2RnNx9hxwxUt2l3R2jaxNt/vtfhodf3zCHwliRQvT+rWRNHY6vnNxrPQjs6sbj
vqbU/w3KiOqsUlswPSnYtjJys1RxIIaJ9+L57t9bSdb7vrU1W5M0wtHu2DETWzIm
tT9cCSRJ0m+J8rAHTFxq72kWLOEs2Xph3EwPtASeC3+UyT0NeNe1GeQbGAILXsdi
TLb0LQpG09A4UjXbC0A8MYtNeI3p3fOI7DvCP0Clp2kRtUcaTUGKxcW43Zwh1cFT
9yT1hwEprvTW5T2T0Wy/QeCDMPWD/A9lktitKE3yYMDAg1H1KqMDQSffj7e5jssj
cIbrTdILtX4j70skNeC+tqbrz00Du5KY4BhPfVaSCxlDwU7ekz1yIwW0kKONn62u
MOoGuyjeFWRHTQnVIcQP+ED3PD3L6dSifpvoTmfRm9YO/QuI6/eiGRsi/gXHKd4L
PpRVonivNKtRfGnsC3DLMyTMhgQ0Z4pS3urN1p1EWE+stMLG
=8W1B
-----END PGP PUBLIC KEY BLOCK-----
